icon/lg/intercom.svg

<?xml version="1.0" encoding="UTF-8"?>
<svg viewBox="0 0 512 130" version="1.1" xmlns="http://www.w3.org/2000/svg" xmlns:xlink="http://www.w3.org/1999/xlink" preserveAspectRatio="xMidYMid" height="1em" width="1em">
  <g>
    <path d="M110.270492,0.000346512646 C112.326249,-0.00877041169 114.363561,0.401691541 116.266236,1.2088242 C118.16891,2.01595686 119.899712,3.2037279 121.35986,4.70438784 C122.819836,6.20522016 123.980541,7.98946258 124.775607,9.95540467 C125.570672,11.9213468 125.984582,14.030373 125.993719,16.1623272 L125.993719,16.1623272 L125.993719,113.167881 C125.9801,115.299663 125.561708,117.407828 124.762505,119.372046 C123.96313,121.336092 122.798632,123.117748 121.33538,124.615133 C119.872129,126.112517 118.138742,127.296496 116.234343,128.099146 C114.329772,128.901969 112.291599,129.307259 110.235841,129.293808 L110.235841,129.293808 L15.7578774,129.293808 C13.6991892,129.307259 11.6580848,128.900762 9.75144512,128.095698 C7.844633,127.290807 6.10986667,126.103725 4.64609832,124.602548 C3.18232997,123.101199 2.01852121,121.315405 1.22138721,119.347049 C0.424080808,117.378866 0.00913670034,115.266737 0,113.131852 L0,113.131852 L0,16.1623272 C0.00913670034,14.0274424 0.424080808,11.9153131 1.22138721,9.94712993 C2.01852121,7.97877437 3.18232997,6.19298043 4.64609832,4.69163094 C6.10986667,3.19045383 7.844633,2.00337235 9.75144512,1.19848077 C11.6580848,0.393416794 13.6991892,-0.0135973477 15.7578774,0.000346512646 L15.7578774,0.000346512646 Z M20.8190037,90.5827266 L20.5829172,90.5945427 C19.4799623,90.6819447 18.4552727,91.2180794 17.7319219,92.0858936 C17.3807623,92.5146289 17.1147636,93.0111138 16.9490963,93.5467313 C16.783429,94.0823488 16.7213684,94.6465831 16.7663623,95.2071973 C16.8115286,95.767639 16.9627152,96.3134276 17.2116471,96.8133602 C17.4605791,97.3131205 17.8020848,97.7570262 18.2168566,98.1195636 C18.8748714,98.6941414 34.3555448,112.09044 62.9275582,112.09044 C91.4995717,112.09044 107.084197,98.6224269 107.638432,98.0476767 L107.638432,98.0476767 L107.673083,98.0837064 C108.490214,97.3422545 108.992215,96.2965333 109.069964,95.1734087 C109.147884,94.0502841 108.795173,92.9407784 108.088544,92.0858936 C107.354333,91.2239407 106.324816,90.6928053 105.218931,90.6057481 C104.113045,90.5185185 103.017848,90.8820902 102.166411,91.6190599 C102.027809,91.726804 88.0015946,103.506769 62.8929077,103.506769 C37.7842209,103.506769 23.8619582,91.7985185 23.6194047,91.6190599 C22.7774492,90.875367 21.6858721,90.5069683 20.5829172,90.5945427 Z M433.04167,40.7255703 C446.326088,40.7255703 452.071865,49.8745104 452.071865,64.564773 C452.071865,79.4477683 446.262303,88.4038033 433.04167,88.4038033 C419.574519,88.4038033 413.949414,79.4477683 413.949414,64.564773 C413.949414,50.1330963 419.633131,40.7255703 433.04167,40.7255703 Z M63.0661603,17.2037387 C61.9547582,17.2037387 60.8888673,17.661608 60.1029387,18.4766707 C59.3170101,19.2915609 58.8755178,20.3969293 58.8755178,21.5495326 L58.8755178,21.5495326 L58.8755178,84.0409427 C58.8755178,85.1935461 59.3170101,86.2989144 60.1029387,87.1138047 C60.8888673,87.9288673 61.9547582,88.3867367 63.0661603,88.3867367 C64.1775623,88.3867367 65.2434532,87.9288673 66.0292094,87.1138047 C66.815138,86.2989144 67.2566303,85.1935461 67.2566303,84.0409427 L67.2566303,84.0409427 L67.2566303,21.5495326 C67.2566303,20.3969293 66.815138,19.2915609 66.0292094,18.4766707 C65.2434532,17.661608 64.1775623,17.2037387 63.0661603,17.2037387 Z M388.433886,40.7255703 C393.314263,40.7255703 397.084444,41.887138 399.925441,44.399041 C402.397522,46.4596255 404.18866,49.3614761 405.238519,53.4209293 C405.793616,55.5470222 404.373118,57.6731151 402.026882,58.124606 C399.803044,58.5105885 398.01363,57.0287192 397.332687,54.9026262 C396.591407,52.8422141 395.600162,51.3603447 394.427906,50.3260013 C392.821226,48.8443043 390.84563,48.1999084 388.247704,48.1999084 C385.468768,48.1999084 383.057024,49.0372094 381.265886,50.9047165 C378.671407,53.6096969 377.557764,58.4449077 377.557764,64.564773 C377.557764,70.6229225 378.609347,75.4539959 381.327946,78.1589764 C383.119084,80.0264835 385.468768,80.8637845 388.185643,80.8637845 C391.02664,80.8637845 393.188418,80.0921643 394.983003,78.3518814 C395.907017,77.4488996 396.713805,76.2912969 397.268902,74.9368242 C398.072242,72.9379555 399.740983,71.4562585 401.901037,71.9734303 C404.062815,72.490602 405.4247,74.6782383 404.743758,76.8045037 C403.630114,80.3466128 401.716579,83.1829548 399.122101,85.1161427 C396.281104,87.2422356 392.759165,88.3381225 388.311488,88.3381225 C382.627771,88.3381225 379.042047,86.5978397 376.321724,84.1516175 C371.689589,79.8335784 369.588148,73.0693171 369.588148,64.564773 C369.588148,55.9943757 371.627529,49.2957952 376.201051,45.043437 C379.042047,42.4658532 382.870842,40.7255703 388.433886,40.7255703 Z M331.22985,41.4298374 L331.472593,41.4356471 L346.113724,41.4356471 C356.186505,41.4356471 360.385939,48.2655892 360.385939,55.2227555 C360.385939,61.7453609 356.804582,66.5871758 350.63999,67.975469 L350.313158,68.0453387 L358.036256,82.3456538 C359.087838,84.2131609 358.406896,86.5978397 356.245118,87.7594074 C354.209347,88.8212148 351.998848,88.0684471 350.911337,86.3225197 L350.809643,86.1504862 L342.221145,69.5927165 L334.067071,69.5927165 L334.129131,83.6385831 C334.129131,85.8303569 332.524175,87.6321831 330.236552,87.6321831 C328.082209,87.6321831 326.508672,85.9373286 326.41243,83.8425124 L326.407758,83.6385831 L326.407758,46.5253064 C326.407758,43.3433987 328.02426,41.4988782 330.992696,41.4314598 L331.22985,41.4298374 Z M200.369562,41.4315097 C204.262141,41.4315097 205.867098,43.6234559 207.413441,46.8454356 L215.072754,62.5041885 L221.621872,77.7116229 L221.437414,63.1485845 L221.375354,45.5607811 C221.375354,43.368835 222.98031,41.5670087 225.267933,41.5670087 C227.486599,41.5628713 229.093279,43.36487 229.093279,45.5566437 L229.093279,80.3507501 C229.093279,85.0545993 226.684983,87.6978639 222.854465,87.6978639 L222.547609,87.6978639 C218.903273,87.6978639 217.170747,85.5060902 215.627852,82.283938 L207.842694,66.4979609 L200.922936,50.1987771 L201.109118,65.9849266 L201.171178,83.5729023 C201.171178,85.7646761 199.566222,87.5665023 197.278599,87.5665023 C195.054761,87.5665023 193.449805,85.7605387 193.449805,83.5729023 L193.449805,48.7786235 C193.449805,44.4607569 195.858101,41.4315097 200.060983,41.4315097 L200.369562,41.4315097 Z M175.343623,41.5628713 C177.567461,41.5628713 179.174141,43.368835 179.174141,45.5566437 L179.174141,83.6344457 C179.174141,85.8262195 177.567461,87.6280457 175.281562,87.6280457 C173.057724,87.6280457 171.451044,85.8220821 171.451044,83.6344457 L171.451044,45.5566437 C171.451044,43.3646976 173.057724,41.5628713 175.343623,41.5628713 Z M505.20264,41.5670087 C509.527919,41.5670087 511.936215,44.2718168 511.936215,49.1070276 L512,83.5727299 C512,85.7646761 510.39332,87.5665023 508.107421,87.5665023 C505.883582,87.5665023 504.276902,85.7605387 504.276902,83.5727299 L504.276902,66.3050559 L504.463084,49.4887003 L499.086222,66.5636417 L493.650747,83.3798249 C492.726734,86.3433912 490.809751,87.5049589 488.399731,87.5049589 C485.865589,87.5049589 484.012391,86.2818478 483.024593,83.3182814 L477.463273,66.5677791 L472.334653,49.7514235 L472.519111,66.3091932 L472.519111,83.5768673 C472.519111,85.7688134 470.912431,87.5706397 468.626532,87.5706397 C466.402694,87.5706397 464.797737,85.7646761 464.797737,83.5768673 L464.797737,49.1070276 C464.797737,44.3374976 467.268094,41.5670087 471.593374,41.5670087 C475.672135,41.5670087 477.958034,43.8203259 479.252687,47.9454599 L484.936404,65.5334356 L488.396283,77.5185454 L491.918222,65.5334356 L497.601939,47.9454599 C498.901764,43.8203259 501.125603,41.5670087 505.20264,41.5670087 Z M269.624027,41.5670087 C271.599623,41.5670087 273.206303,43.1143865 273.206303,45.3677037 C273.206303,47.5596498 271.599623,49.1028902 269.624027,49.1028902 L260.047731,49.1028902 L260.047731,83.5729023 C260.047731,85.7646761 258.442774,87.5665023 256.155152,87.5665023 C253.933037,87.5665023 252.326357,85.7605387 252.326357,83.5729023 L252.326357,49.1028902 L242.750061,49.1028902 C240.774465,49.1028902 239.169508,47.5555124 239.169508,45.3020229 C239.169508,43.1102491 240.774465,41.5670087 242.750061,41.5670087 L269.624027,41.5670087 Z M288.343919,41.4356471 L310.585751,41.4356471 C312.561347,41.4356471 314.166303,43.0445683 314.166303,45.2365144 C314.166303,47.4282882 312.561347,48.9715286 310.585751,48.9715286 L290.936673,48.9715286 L290.936673,60.0538289 L308.298128,60.0538289 C310.215111,60.0538289 311.758007,61.5355259 311.758007,63.6617912 C311.758007,65.7878841 310.215111,67.2695811 308.298128,67.2695811 L290.936673,67.2695811 L290.936673,80.0264835 L310.585751,80.0264835 C312.561347,80.0264835 314.166303,81.6355771 314.166303,83.8273508 C314.166303,86.0191245 312.561347,87.5625436 310.585751,87.5625436 L288.157737,87.5625436 C284.946101,87.5665023 283.156687,85.6989952 283.27736,82.283938 L283.27736,46.5253064 C283.27736,43.1759299 285.068498,41.3084229 288.343919,41.4356471 Z M42.1825939,19.574109 C41.0673993,19.5153239 39.9749603,19.9168215 39.1443825,20.6906828 C38.3136323,21.4647165 37.8123205,22.5481912 37.7495704,23.7044148 L37.7495704,23.7044148 L37.7495704,81.1678814 C37.7495704,82.3203124 38.1910626,83.4256808 38.9769912,84.2407434 C39.7629199,85.0556336 40.8288108,85.513503 41.9402128,85.513503 C43.0516148,85.513503 44.1175057,85.0556336 44.9034343,84.2407434 C45.6891906,83.4256808 46.1306828,82.3203124 46.1306828,81.1678814 L46.1306828,81.1678814 L46.1306828,23.7044148 C46.0810343,22.6316282 45.6500579,21.6160754 44.9210182,20.8534195 C44.1919785,20.0907636 43.2164202,19.6349629 42.1825939,19.574109 Z M83.8457751,19.3586208 C82.7343731,19.3586208 81.6684822,19.8164902 80.8825535,20.6315528 C80.0966249,21.4464431 79.6551327,22.5518114 79.6551327,23.7044148 L79.6551327,23.7044148 L79.6551327,81.1678814 C79.6551327,82.3203124 80.0966249,83.4256808 80.8825535,84.2407434 C81.6684822,85.0556336 82.7343731,85.513503 83.8457751,85.513503 C84.9571771,85.513503 86.023068,85.0556336 86.8088242,84.2407434 C87.5947529,83.4256808 88.0362451,82.3203124 88.0362451,81.1678814 L88.0362451,81.1678814 L88.0362451,23.7044148 C88.0362451,22.5518114 87.5947529,21.4464431 86.8088242,20.6315528 C86.023068,19.8164902 84.9571771,19.3586208 83.8457751,19.3586208 Z M432.979609,48.2655892 C425.749549,48.2655892 421.91903,53.6138343 421.91903,64.564773 C421.91903,75.5196767 425.627152,80.8637845 432.979609,80.8637845 C440.268283,80.8637845 444.160862,75.5155394 444.160862,64.564773 C444.160862,53.6096969 440.332067,48.2655892 432.979609,48.2655892 Z M104.902422,27.9781495 C103.79102,27.9781495 102.725129,28.4360188 101.9392,29.2510814 C101.153271,30.0659717 100.711779,31.17134 100.711779,32.3239434 L100.711779,32.3239434 L100.711779,71.1476794 C100.711779,72.3001104 101.153271,73.4054787 101.9392,74.2205414 C102.725129,75.0354316 103.79102,75.493301 104.902422,75.493301 C106.013824,75.493301 107.079714,75.0354316 107.865643,74.2205414 C108.651399,73.4054787 109.092892,72.3001104 109.092892,71.1476794 L109.092892,71.1476794 L109.092892,32.3239434 C109.092892,31.17134 108.651399,30.0659717 107.865643,29.2510814 C107.079714,28.4360188 106.013824,27.9781495 104.902422,27.9781495 Z M21.160598,28.1936377 C20.0454034,28.1348525 18.9529643,28.5363501 18.1223865,29.3102114 C17.2916364,30.0842451 16.7901522,31.1677198 16.7275744,32.3239434 L16.7275744,32.3239434 L16.7275744,71.0757926 C16.7275744,72.2283959 17.1690667,73.3337643 17.9549953,74.1486545 C18.7409239,74.9637171 19.8068148,75.4214141 20.9182168,75.4214141 C22.0296189,75.4214141 23.0955098,74.9637171 23.881266,74.1486545 C24.6671946,73.3337643 25.1086869,72.2283959 25.1086869,71.0757926 L25.1086869,71.0757926 L25.1086869,32.3239434 C25.0590384,31.2511569 24.628062,30.235604 23.8990222,29.4729481 C23.1699825,28.7102922 22.1944242,28.2544915 21.160598,28.1936377 Z M346.232673,48.9675636 L334.061899,48.9675636 L334.061899,62.3073185 L346.294734,62.3073185 C350.435556,62.3073185 352.597333,59.5366572 352.597333,55.6046006 C352.597333,51.6723717 350.30971,48.9675636 346.232673,48.9675636 Z" fill="#000000"/>
  </g>
</svg>

<svg width="512" height="130" xmlns="http://www.w3.org/2000/svg" preserveAspectRatio="xMidYMid"><path d="M110.27 0c2.056-.009 4.094.402 5.996 1.209a15.626 15.626 0 0 1 5.094 3.495 16.28 16.28 0 0 1 3.416 5.251 16.755 16.755 0 0 1 1.218 6.207v97.006a16.754 16.754 0 0 1-1.231 6.204 16.278 16.278 0 0 1-3.428 5.243 15.619 15.619 0 0 1-5.1 3.484 15.178 15.178 0 0 1-6 1.195H15.759c-2.059.013-4.1-.393-6.007-1.198a15.619 15.619 0 0 1-5.105-3.493 16.276 16.276 0 0 1-3.425-5.256A16.753 16.753 0 0 1 0 113.132v-96.97c.01-2.135.424-4.247 1.221-6.215a16.276 16.276 0 0 1 3.425-5.255 15.619 15.619 0 0 1 5.105-3.494A15.169 15.169 0 0 1 15.758 0ZM20.82 90.583l-.236.012a4.14 4.14 0 0 0-2.851 1.49 4.32 4.32 0 0 0-.783 1.462 4.425 4.425 0 0 0 .263 3.266c.249.5.59.944 1.005 1.307.658.574 16.139 13.97 44.71 13.97 28.573 0 44.157-13.468 44.711-14.042l.035.036a4.332 4.332 0 0 0 1.397-2.91 4.376 4.376 0 0 0-.981-3.088 4.206 4.206 0 0 0-2.87-1.48 4.16 4.16 0 0 0-3.053 1.013c-.138.108-14.164 11.888-39.273 11.888S23.862 91.799 23.619 91.619a4.093 4.093 0 0 0-3.036-1.024Zm412.223-49.857c13.284 0 19.03 9.149 19.03 23.839 0 14.883-5.81 23.839-19.03 23.839-13.467 0-19.093-8.956-19.093-23.84 0-14.43 5.684-23.838 19.093-23.838ZM63.066 17.204a4.116 4.116 0 0 0-2.963 1.273 4.428 4.428 0 0 0-1.227 3.073v62.49c0 1.154.441 2.259 1.227 3.074a4.116 4.116 0 0 0 2.963 1.273 4.115 4.115 0 0 0 2.963-1.273 4.428 4.428 0 0 0 1.228-3.073V21.55a4.428 4.428 0 0 0-1.228-3.073 4.115 4.115 0 0 0-2.963-1.273Zm325.368 23.522c4.88 0 8.65 1.161 11.491 3.673 2.473 2.06 4.264 4.962 5.314 9.022.555 2.126-.866 4.252-3.212 4.704-2.224.386-4.013-1.096-4.694-3.222-.742-2.06-1.733-3.543-2.905-4.577-1.607-1.482-3.582-2.126-6.18-2.126-2.78 0-5.191.837-6.982 2.705-2.595 2.705-3.708 7.54-3.708 13.66 0 6.058 1.051 10.889 3.77 13.594 1.791 1.867 4.14 2.705 6.858 2.705 2.84 0 5.002-.772 6.797-2.512.924-.903 1.73-2.06 2.286-3.415.803-1.999 2.472-3.48 4.632-2.964 2.162.518 3.524 2.705 2.843 4.832-1.114 3.542-3.027 6.378-5.622 8.311-2.84 2.126-6.363 3.222-10.81 3.222-5.684 0-9.27-1.74-11.99-4.186-4.632-4.318-6.734-11.083-6.734-19.587 0-8.57 2.04-15.27 6.613-19.522 2.841-2.577 6.67-4.317 12.233-4.317Zm-57.204.704.243.006h14.64c10.074 0 14.273 6.83 14.273 13.787 0 6.522-3.581 11.364-9.746 12.752l-.327.07 7.723 14.3c1.052 1.868.37 4.253-1.79 5.414-2.037 1.062-4.247.31-5.335-1.436l-.101-.173-8.589-16.557h-8.154l.062 14.046c0 2.191-1.605 3.993-3.892 3.993-2.155 0-3.728-1.695-3.825-3.79l-.004-.203V46.525c0-3.182 1.616-5.026 4.585-5.094l.237-.001Zm-130.86.002c3.892 0 5.497 2.191 7.043 5.413l7.66 15.66 6.549 15.207-.185-14.563-.062-17.588c0-2.192 1.605-3.994 3.893-3.994 2.219-.004 3.825 1.798 3.825 3.99V80.35c0 4.704-2.408 7.347-6.239 7.347h-.306c-3.645 0-5.377-2.192-6.92-5.414l-7.785-15.786-6.92-16.3.186 15.787.062 17.588c0 2.192-1.605 3.994-3.892 3.994-2.224 0-3.83-1.806-3.83-3.994V48.779c0-4.318 2.41-7.347 6.612-7.347h.309Zm-25.026.13c2.223 0 3.83 1.807 3.83 3.995v38.077c0 2.192-1.607 3.994-3.892 3.994-2.224 0-3.831-1.806-3.831-3.994V45.557c0-2.192 1.607-3.994 3.893-3.994Zm329.859.005c4.325 0 6.733 2.705 6.733 7.54L512 83.573c0 2.192-1.607 3.994-3.893 3.994-2.223 0-3.83-1.806-3.83-3.994V66.305l.186-16.816-5.377 17.075-5.435 16.816c-.924 2.963-2.841 4.125-5.251 4.125-2.534 0-4.388-1.223-5.375-4.187l-5.562-16.75-5.128-16.817.184 16.558v17.268c0 2.192-1.607 3.994-3.892 3.994-2.224 0-3.83-1.806-3.83-3.994v-34.47c0-4.77 2.471-7.54 6.796-7.54 4.08 0 6.365 2.253 7.66 6.378l5.683 17.588 3.46 11.986 3.522-11.986 5.684-17.588c1.3-4.125 3.524-6.378 7.6-6.378Zm-235.579 0c1.976 0 3.582 1.547 3.582 3.8 0 2.193-1.606 3.736-3.582 3.736h-9.576v34.47c0 2.192-1.605 3.994-3.893 3.994-2.222 0-3.829-1.806-3.829-3.994v-34.47h-9.576c-1.976 0-3.58-1.547-3.58-3.801 0-2.192 1.604-3.735 3.58-3.735h26.874Zm18.72-.131h22.242c1.975 0 3.58 1.609 3.58 3.8 0 2.192-1.605 3.736-3.58 3.736h-19.65v11.082h17.362c1.917 0 3.46 1.482 3.46 3.608 0 2.126-1.543 3.608-3.46 3.608h-17.361v12.756h19.649c1.975 0 3.58 1.61 3.58 3.801 0 2.192-1.605 3.736-3.58 3.736h-22.428c-3.212.004-5.001-1.864-4.88-5.28V46.526c0-3.35 1.79-5.217 5.066-5.09ZM42.183 19.574a4.135 4.135 0 0 0-3.039 1.117 4.448 4.448 0 0 0-1.394 3.013v57.464c0 1.152.441 2.258 1.227 3.073a4.117 4.117 0 0 0 2.963 1.273 4.117 4.117 0 0 0 2.963-1.273 4.43 4.43 0 0 0 1.228-3.073V23.704a4.422 4.422 0 0 0-1.21-2.85 4.125 4.125 0 0 0-2.738-1.28Zm41.663-.215a4.116 4.116 0 0 0-2.963 1.273 4.428 4.428 0 0 0-1.228 3.072v57.464c0 1.152.442 2.258 1.228 3.073a4.117 4.117 0 0 0 2.963 1.273 4.116 4.116 0 0 0 2.963-1.273 4.429 4.429 0 0 0 1.227-3.073V23.704a4.428 4.428 0 0 0-1.227-3.072 4.115 4.115 0 0 0-2.963-1.273ZM432.98 48.266c-7.23 0-11.061 5.348-11.061 16.299 0 10.955 3.708 16.299 11.06 16.299 7.29 0 11.182-5.348 11.182-16.3 0-10.954-3.829-16.298-11.181-16.298ZM104.902 27.978a4.116 4.116 0 0 0-2.963 1.273 4.428 4.428 0 0 0-1.227 3.073v38.824c0 1.152.441 2.257 1.227 3.073a4.117 4.117 0 0 0 2.963 1.272 4.117 4.117 0 0 0 2.964-1.272 4.43 4.43 0 0 0 1.227-3.073V32.324a4.429 4.429 0 0 0-1.227-3.073 4.116 4.116 0 0 0-2.964-1.273Zm-83.741.216a4.135 4.135 0 0 0-3.039 1.116 4.447 4.447 0 0 0-1.394 3.014v38.752c0 1.152.441 2.258 1.227 3.073a4.116 4.116 0 0 0 2.963 1.272 4.115 4.115 0 0 0 2.963-1.272 4.428 4.428 0 0 0 1.228-3.073V32.324a4.422 4.422 0 0 0-1.21-2.851 4.125 4.125 0 0 0-2.738-1.28Zm325.072 20.774h-12.171v13.34h12.233c4.14 0 6.302-2.771 6.302-6.703 0-3.933-2.287-6.637-6.364-6.637Z"/></svg>
